X:31
T:Stuart's Rant
M:C|
L:1/8
K:AMix
A|(c/d/e) (f/^g/a) Te2(dc)|dBgB     aBgB|(c/d/e) (f/^g/a) Te2(dc)|dBgB     a2A:|
e|TcA      A/A/A   TcATcA |BE E/E/E BEBe|TcA      A/A/A   TcAce  |BE E/E/E e2A:|

% @@@@@@@@@@@@@@@@@@@@@@@@@@@@@@@@@@

%% 32. ===============================================================================

% +&C&astle &S&tuart.+
%
% *FIRST Man sett to 2d Woman, and turn her.  First Woman do the same.  *First Couple
% lead down thro' the 2d and 3d Couple, and cast up.  Then Right and Left with the 2d
% Couple.  *SETT across and turn.  *Lead out at the sides.

% @@@@@@@@@@@@@@@@@@@@@@@@@@@@@@@@@@

